X: 40798
T: Tra Na Mban
R: jig
M: 6/8
K: Cmajor
|:GF|EGc edc|cdB c2 d|cBG EFG|FDC ~_B,3|
G,CE EDE|Gce fed|cBG FDB,|~C3 C:|
|:GF|EGc ege|fdc B2 d|cBc (3EFG c|AGE D^CD|
ECE FEF|Gce fed|cBG FDB,|~C3 C:|

